rospo-icon-theme-classic-common/22x22/apps/oracle-sqldeveloper.svg

<svg height="22" viewBox="0 0 22 22" width="22" xmlns="http://www.w3.org/2000/svg"><path d="m10.000113 10.500113a9.9998872 4.9999436 0 0 0 -9.9998877 4.999943 9.9998872 4.9999436 0 0 0 9.9998877 4.999944 9.9998872 4.9999436 0 0 0 9.999887-4.999944 9.9998872 4.9999436 0 0 0 -9.999887-4.999943z" opacity=".2"/><path d="m10.000113 10.000118a9.9998872 4.9999436 0 0 0 -9.9998877 4.999944 9.9998872 4.9999436 0 0 0 9.9998877 4.999944 9.9998872 4.9999436 0 0 0 9.999887-4.999944 9.9998872 4.9999436 0 0 0 -9.999887-4.999944z" fill="#696969"/><path d="m10.000113 5.5001692a9.9998872 4.9999436 0 0 0 -9.9998877 4.9999438 9.9998872 4.9999436 0 0 0 9.9998877 4.999943 9.9998872 4.9999436 0 0 0 9.999887-4.999943 9.9998872 4.9999436 0 0 0 -9.999887-4.9999438z" opacity=".2"/><path d="m10.000113 5.0001749a9.9998872 4.9999436 0 0 0 -9.9998877 4.9999431 9.9998872 4.9999436 0 0 0 9.9998877 4.999944 9.9998872 4.9999436 0 0 0 9.999887-4.999944 9.9998872 4.9999436 0 0 0 -9.999887-4.9999431z" fill="#919191"/><path d="m10.000113.5002256a9.9998872 4.9999436 0 0 0 -9.9998877 4.9999436 9.9998872 4.9999436 0 0 0 9.9998877 4.9999438 9.9998872 4.9999436 0 0 0 9.999887-4.9999438 9.9998872 4.9999436 0 0 0 -9.999887-4.9999436z" opacity=".2"/><path d="m10.000113.0002313a9.9998872 4.9999436 0 0 0 -9.9998877 4.9999436 9.9998872 4.9999436 0 0 0 9.9998877 4.9999431 9.9998872 4.9999436 0 0 0 9.999887-4.9999431 9.9998872 4.9999436 0 0 0 -9.999887-4.9999436z" fill="#e4e4e4"/><path d="m9.9998869.0002313a9.9998872 4.9999436 0 0 0 -9.9998869 4.9999436 9.9998872 4.9999436 0 0 0  .0205076.2089821 9.9998872 4.9999436 0 0 1 9.9793793-4.7089314 9.9998872 4.9999436 0 0 1 9.9793801 4.7958444 9.9998872 4.9999436 0 0 0  .020507-.2958951 9.9998872 4.9999436 0 0 0 -9.9998871-4.9999436z" fill="#fff" opacity=".2"/><circle cx="16.5" cy="16" opacity=".2" r="5.5"/><circle cx="16.5" cy="15.5" fill="#0ab884" r="5.5"/><path d="m20.907793 18.137032-2.165063 1.25-2.165064 1.25v-2.500001-2.5l2.165064 1.250001z" fill="#fff" transform="matrix(.92376041 0 0 1 -.313792 -2.637032)"/></svg>

<svg xmlns="http://www.w3.org/2000/svg" width="22" height="22" version="1.1" viewBox="0 0 22 22">
 <path style="opacity:0.2" d="M 10.000113,10.500113 A 9.9998872,4.9999436 0 0 0 2.253e-4,15.500056 9.9998872,4.9999436 0 0 0 10.000113,20.5 9.9998872,4.9999436 0 0 0 20,15.500056 9.9998872,4.9999436 0 0 0 10.000113,10.500113 Z"/>
 <path style="fill:#696969" d="M 10.000113,10.000118 A 9.9998872,4.9999436 0 0 0 2.253e-4,15.000062 9.9998872,4.9999436 0 0 0 10.000113,20.000006 9.9998872,4.9999436 0 0 0 20,15.000062 9.9998872,4.9999436 0 0 0 10.000113,10.000118 Z"/>
 <path style="opacity:0.2" d="M 10.000113,5.5001692 A 9.9998872,4.9999436 0 0 0 2.253e-4,10.500113 9.9998872,4.9999436 0 0 0 10.000113,15.500056 9.9998872,4.9999436 0 0 0 20,10.500113 9.9998872,4.9999436 0 0 0 10.000113,5.5001692 Z"/>
 <path style="fill:#919191" d="M 10.000113,5.0001749 A 9.9998872,4.9999436 0 0 0 2.253e-4,10.000118 9.9998872,4.9999436 0 0 0 10.000113,15.000062 9.9998872,4.9999436 0 0 0 20,10.000118 9.9998872,4.9999436 0 0 0 10.000113,5.0001749 Z"/>
 <path style="opacity:0.2" d="M 10.000113,0.5002256 A 9.9998872,4.9999436 0 0 0 2.253e-4,5.5001692 9.9998872,4.9999436 0 0 0 10.000113,10.500113 9.9998872,4.9999436 0 0 0 20,5.5001692 9.9998872,4.9999436 0 0 0 10.000113,0.5002256 Z"/>
 <path style="fill:#cccccc" d="M 10.000113,2.313e-4 A 9.9998872,4.9999436 0 0 0 2.253e-4,5.0001749 9.9998872,4.9999436 0 0 0 10.000113,10.000118 9.9998872,4.9999436 0 0 0 20,5.0001749 9.9998872,4.9999436 0 0 0 10.000113,2.313e-4 Z"/>
 <path style="opacity:0.2;fill:#ffffff" d="M 9.9998869,2.313e-4 A 9.9998872,4.9999436 0 0 0 0,5.0001749 9.9998872,4.9999436 0 0 0 0.0205076,5.209157 9.9998872,4.9999436 0 0 1 9.9998869,0.5002256 9.9998872,4.9999436 0 0 1 19.979267,5.29607 9.9998872,4.9999436 0 0 0 19.999774,5.0001749 9.9998872,4.9999436 0 0 0 9.9998869,2.313e-4 Z"/>
 <circle cx="16.5" cy="16" r="5.5" style="opacity:0.2"/>
 <circle style="fill:#0ab884" cx="16.5" cy="15.5" r="5.5"/>
 <path style="fill:#ffffff" d="m 20.907793,18.137032 -2.165063,1.25 -2.165064,1.25 0,-2.500001 0,-2.5 2.165064,1.250001 z" transform="matrix(0.92376041,0,0,1,-0.3137918,-2.6370316)"/>
</svg>
